docs/.gitbook/assets/icon-xmark-16@dark.svg

<svg width="32" height="32" viewBox="0 0 16 16" fill="none" xmlns="http://www.w3.org/2000/svg">
<rect x="0" y="0" width="16" height="16" fill="#181c1f"/>
<path d="M3.08405 11.8879C2.81745 12.1545 2.80476 12.6306 3.0904 12.9099C3.3697 13.1892 3.84577 13.1829 4.11237 12.9163L7.99714 9.02515L11.8883 12.9163C12.1612 13.1892 12.6309 13.1892 12.9102 12.9099C13.1832 12.6243 13.1895 12.1609 12.9102 11.8879L9.02546 7.99683L12.9102 4.11207C13.1895 3.83912 13.1895 3.36939 12.9102 3.09009C12.6246 2.81715 12.1612 2.8108 11.8883 3.08375L7.99714 6.97486L4.11237 3.08375C3.84577 2.81715 3.36335 2.80445 3.0904 3.09009C2.8111 3.36939 2.81745 3.84547 3.08405 4.11207L6.97517 7.99683L3.08405 11.8879Z" fill="#fff"/>
</svg>

<svg xmlns="http://www.w3.org/2000/svg" width="32" height="32" fill="none" viewBox="0 0 16 16"><path fill="#181c1f" d="M0 0h16v16H0z"/><path fill="#fff" d="M3.084 11.888a.734.734 0 0 0 .006 1.022.74.74 0 0 0 1.022.006l3.885-3.89 3.891 3.89a.734.734 0 0 0 1.022-.006c.273-.286.28-.75 0-1.022L9.025 7.997l3.885-3.885a.73.73 0 0 0 0-1.022c-.285-.273-.749-.28-1.022-.006l-3.89 3.89-3.886-3.89c-.266-.267-.749-.28-1.022.006a.74.74 0 0 0-.006 1.022l3.891 3.885z"/></svg>
